X: 31338
T: Paddy McMahon's
R: jig
M: 6/8
K: Dmajor
From Martin Mulvihill
f3 edB|BAF FEF|EDB, DFA|BAF Ade|
f3 edB|BAF FEF|EDB, DFA|Bdc d3:|
f3 afe|dBd BAF|BAF DFA|BAF EFA|
B/c/dB AFE|DFA BAF|Ade faf|gec d3:|

